X: 38100
T: Spoils Of Victory, The
R: hornpipe
M: 4/4
K: Gmajor
|:BA|GABc dedB|cdef gedc|BGBd gdBG|AGFE DcBA|
GABc dedB|cdef gedc|BGBd cAFA|G2 B2 G2:|
|:AG|FGAB cdef|gafg efde|cdBc ABGA|FGEF DcBA|
GABc dedB|cdef gedc|BGBd cAFA|G2 B2 G2:|

